img/icon-payment/logo-visa.svg

<svg width="87" height="28" viewBox="0 0 87 28" fill="none" xmlns="http://www.w3.org/2000/svg">
<path d="M86.7043 27.5668C84.5428 27.5668 82.3813 27.5668 80.1741 27.5668C79.9306 26.4251 79.6718 25.2987 79.4739 24.1571C79.3826 23.6852 79.2456 23.5025 78.7128 23.5178C76.0947 23.5482 73.4765 23.5482 70.8584 23.5178C70.4626 23.5178 70.3104 23.6395 70.1886 24.0049C69.8233 25.0856 69.4275 26.1511 69.0317 27.2167C68.9708 27.3537 68.7882 27.5668 68.6664 27.5668C66.307 27.582 63.9476 27.582 61.5273 27.582C61.9688 26.5165 62.395 25.4966 62.8212 24.492C65.8656 17.2311 68.91 9.97029 71.9543 2.72468C72.6089 1.15682 73.5983 0.487061 75.3031 0.487061C77.1907 0.487061 79.0934 0.487061 81.0266 0.487061C81.2092 1.36993 81.4071 2.23758 81.5898 3.12044C83.0815 10.2899 84.5733 17.4594 86.0802 24.6442C86.2781 25.5575 86.5064 26.4708 86.7043 27.3841C86.7043 27.4298 86.7043 27.5059 86.7043 27.5668ZM78.1649 17.9313C77.4646 14.5977 76.7797 11.3098 76.0947 8.02189C76.0642 8.02189 76.0338 8.00667 76.0034 8.00667C74.8008 11.3098 73.6135 14.5977 72.3958 17.9313C74.3594 17.9313 76.2317 17.9313 78.1649 17.9313Z" fill="url(#paint0_linear)"/>
<path d="M58.2692 0C59.1368 0.167441 60.0045 0.289215 60.8569 0.4871C61.6332 0.669762 62.3943 0.913312 63.2315 1.15686C62.8205 3.10526 62.4095 5.008 62.0138 6.86507C60.9178 6.54541 59.8827 6.18008 58.802 5.93653C57.3407 5.61687 55.8337 5.4951 54.3724 5.89086C53.7787 6.05831 53.1699 6.37797 52.698 6.77373C51.8912 7.45872 51.876 8.46336 52.6523 9.17879C53.1851 9.68111 53.8092 10.0921 54.4333 10.4727C55.8641 11.3251 57.3559 12.0709 58.7563 12.9995C60.385 14.0802 61.5876 15.572 61.8311 17.566C62.2725 21.1127 60.9635 23.9136 57.98 25.8924C56.1077 27.1406 53.9766 27.6886 51.7695 27.9017C48.6794 28.1909 45.6503 27.8408 42.6972 26.8666C42.4993 26.8057 42.3014 26.7144 42.1188 26.6383C42.0579 26.6078 42.0122 26.5774 41.9209 26.5165C42.3319 24.5681 42.7581 22.6045 43.1843 20.5952C43.6866 20.8083 44.1585 21.0366 44.6456 21.2345C46.9441 22.163 49.334 22.5893 51.7999 22.1326C52.4392 22.0108 53.0938 21.7216 53.6417 21.3715C54.829 20.58 54.9356 19.0882 53.8548 18.1597C53.1546 17.5508 52.3022 17.0942 51.4955 16.6071C50.232 15.846 48.9077 15.1914 47.7052 14.3238C46.183 13.2278 45.0718 11.7513 44.8587 9.81811C44.5391 6.89551 45.635 4.53612 47.8727 2.69427C49.8211 1.09597 52.1348 0.380547 54.6007 0.0913313C54.7377 0.0761094 54.8747 0.0304437 55.0117 0C56.0772 0 57.1732 0 58.2692 0Z" fill="url(#paint1_linear)"/>
<path d="M32.8792 0.502612C32.5139 1.38548 32.1638 2.22268 31.8137 3.05989C28.4497 11.0666 25.0856 19.0885 21.7521 27.1104C21.5998 27.491 21.402 27.5975 21.0062 27.5823C18.8903 27.5671 16.7593 27.5519 14.6434 27.5823C14.1868 27.5823 14.0498 27.4301 13.9432 27.0343C12.1471 20.0323 10.3204 13.0302 8.53947 6.02815C8.21981 4.74951 7.56527 3.86665 6.3323 3.31866C4.3839 2.46623 2.34417 1.85736 0.273994 1.35504C0.182662 1.33981 0.0913313 1.30937 0 1.29415C0.0152219 0.48739 0.0152219 0.48739 0.776316 0.48739C4.49045 0.48739 8.20459 0.48739 11.9035 0.48739C13.6692 0.48739 14.9327 1.50726 15.2675 3.25777C16.2113 8.18966 17.1246 13.1215 18.0684 18.0534C18.114 18.2665 18.1597 18.4796 18.2206 18.7841C18.3119 18.6014 18.388 18.4949 18.4337 18.3883C20.7322 12.5583 23.0307 6.72836 25.3292 0.89838C25.451 0.578721 25.6032 0.472168 25.9533 0.472168C28.0996 0.48739 30.2611 0.48739 32.4074 0.48739C32.5444 0.48739 32.6966 0.48739 32.8792 0.502612Z" fill="url(#paint2_linear)"/>
<path d="M30.0781 27.5821C32.0113 18.5251 33.9445 9.52893 35.8777 0.517578C38.2218 0.517578 40.5508 0.517578 42.9102 0.517578C42.6209 1.88755 42.3317 3.24229 42.0425 4.58182C40.4442 12.0253 38.8459 19.484 37.2781 26.9275C37.1715 27.4451 36.9889 27.6125 36.4409 27.5973C34.5077 27.5668 32.5897 27.5821 30.6566 27.5821C30.4739 27.5821 30.3065 27.5821 30.0781 27.5821Z" fill="url(#paint3_linear)"/>
<defs>
<linearGradient id="paint0_linear" x1="4.85404" y1="14.5221" x2="86.2487" y2="13.9866" gradientUnits="userSpaceOnUse">
<stop stop-color="#262860"/>
<stop offset="1" stop-color="#3D429B"/>
</linearGradient>
<linearGradient id="paint1_linear" x1="4.85202" y1="14.3179" x2="86.2465" y2="13.7824" gradientUnits="userSpaceOnUse">
<stop stop-color="#262860"/>
<stop offset="1" stop-color="#3D429B"/>
</linearGradient>
<linearGradient id="paint2_linear" x1="4.8505" y1="14.073" x2="86.2451" y2="13.5376" gradientUnits="userSpaceOnUse">
<stop stop-color="#262860"/>
<stop offset="1" stop-color="#3D429B"/>
</linearGradient>
<linearGradient id="paint3_linear" x1="4.85138" y1="14.2572" x2="86.246" y2="13.7217" gradientUnits="userSpaceOnUse">
<stop stop-color="#262860"/>
<stop offset="1" stop-color="#3D429B"/>
</linearGradient>
</defs>
</svg>

<svg width="87" height="28" fill="none" xmlns="http://www.w3.org/2000/svg"><path d="M86.704 27.567h-6.53c-.243-1.142-.502-2.268-.7-3.41-.091-.472-.228-.654-.761-.64-2.618.031-5.236.031-7.855 0-.395 0-.548.123-.67.488-.365 1.08-.76 2.146-1.156 3.212-.061.137-.244.35-.366.35-2.359.015-4.718.015-7.139.015.442-1.066.868-2.085 1.294-3.09 3.045-7.26 6.089-14.522 9.133-21.767.655-1.568 1.644-2.238 3.35-2.238h5.723c.182.883.38 1.75.563 2.633 1.492 7.17 2.983 14.34 4.49 21.524.198.914.426 1.827.624 2.74v.183zm-8.54-9.636c-.7-3.333-1.384-6.621-2.07-9.91-.03 0-.06-.014-.09-.014-1.203 3.303-2.39 6.59-3.608 9.924h5.769z" fill="url(#paint0_linear)"/><path d="M58.27 0c.867.167 1.734.29 2.587.487.776.183 1.537.426 2.374.67-.41 1.948-.822 3.851-1.217 5.708-1.096-.32-2.131-.685-3.212-.928-1.461-.32-2.968-.442-4.43-.046a4.664 4.664 0 00-1.674.883c-.807.685-.822 1.69-.046 2.405.533.502 1.157.913 1.781 1.294 1.431.852 2.923 1.598 4.323 2.526 1.629 1.081 2.832 2.573 3.075 4.567.441 3.547-.867 6.348-3.851 8.326-1.872 1.249-4.003 1.797-6.21 2.01-3.09.289-6.12-.061-9.073-1.035-.198-.061-.396-.153-.578-.229-.061-.03-.107-.06-.198-.122.41-1.948.837-3.911 1.263-5.92.503.212.974.44 1.462.639 2.298.928 4.688 1.354 7.154.898.64-.122 1.294-.411 1.842-.761 1.187-.792 1.294-2.284.213-3.212-.7-.61-1.553-1.066-2.36-1.553-1.263-.761-2.587-1.416-3.79-2.283-1.522-1.096-2.633-2.573-2.846-4.506-.32-2.922.776-5.282 3.014-7.124C49.82 1.096 52.135.381 54.6.091c.137-.015.274-.06.41-.091h3.258z" fill="url(#paint1_linear)"/><path d="M32.88.503c-.366.882-.716 1.72-1.066 2.557a6663.483 6663.483 0 00-10.062 24.05c-.152.381-.35.488-.746.472-2.116-.015-4.247-.03-6.363 0-.456 0-.593-.152-.7-.548C12.147 20.032 10.32 13.03 8.54 6.028c-.32-1.278-.974-2.161-2.207-2.71-1.948-.852-3.988-1.46-6.058-1.963C.183 1.34.091 1.309 0 1.295.015.486.015.486.776.486h11.127c1.766 0 3.03 1.02 3.364 2.77.944 4.933 1.858 9.864 2.801 14.796.046.213.092.427.153.731.09-.183.167-.29.213-.396L25.329.898c.122-.32.274-.426.624-.426 2.147.015 4.308.015 6.454.015.137 0 .29 0 .472.016z" fill="url(#paint2_linear)"/><path d="M30.078 27.582c1.933-9.057 3.866-18.053 5.8-27.064h7.032c-.29 1.37-.578 2.724-.867 4.064a5832.663 5832.663 0 00-4.765 22.345c-.106.518-.29.686-.837.67-1.933-.03-3.851-.015-5.784-.015h-.579z" fill="url(#paint3_linear)"/><defs><linearGradient id="paint0_linear" x1="4.854" y1="14.522" x2="86.249" y2="13.987" gradientUnits="userSpaceOnUse"><stop stop-color="#262860"/><stop offset="1" stop-color="#3D429B"/></linearGradient><linearGradient id="paint1_linear" x1="4.852" y1="14.318" x2="86.246" y2="13.782" gradientUnits="userSpaceOnUse"><stop stop-color="#262860"/><stop offset="1" stop-color="#3D429B"/></linearGradient><linearGradient id="paint2_linear" x1="4.851" y1="14.073" x2="86.245" y2="13.538" gradientUnits="userSpaceOnUse"><stop stop-color="#262860"/><stop offset="1" stop-color="#3D429B"/></linearGradient><linearGradient id="paint3_linear" x1="4.851" y1="14.257" x2="86.246" y2="13.722" gradientUnits="userSpaceOnUse"><stop stop-color="#262860"/><stop offset="1" stop-color="#3D429B"/></linearGradient></defs></svg>
